X:1
T:I Would Be a Little Sunbeam
T:I Would Be a Little Sunbeam
T:Charles Hutchinson Gabriel
T:Miriam A. Arnold, 1903
T:Public Domain Courtesy of the Cyber Hymnal™
T:Public Domain Courtesy of the Cyber Hymnal™
C:Charles Hutchinson Gabriel
Z:Public Domain
Z:Courtesy of the Cyber Hymnal™
%%score ( 1 2 ) 3
L:1/8
Q:1/4=90
M:3/4
K:G
V:1 treble 
V:2 treble 
V:3 bass 
V:1
 DB AA FG | d2 F4 | DF Ac BA | B4 z2 | DB AG FG | d2 F4 | DF Ac BA | G4 z2 || %8
w: 1.~I would be a lit- tle|sun- beam,|Shin- ing bright- ly all the|day,|With its light and joy and|glad- ness,|Driv- ing all the clouds a-|way.|
w: 2.~I would be a lit- tle|sun- beam,|And with hap- py smile or|song,|Cheer the hearts of those a-|round me—|Make them cheer- ful, brave and|strong.|
w: 3.~I would be a lit- tle|sun- beam,|Help me, Je- sus, so to|shine;|May the light of Thy dear|Spir- it|Fill this lit- tle heart of|mine.|
"^Refrain" A2 d4 [dd']2 | B2 d4 [dd']2 | ^cB AG FE | B2 A4 | A2 d4 [dd']2 | B2 d4 [dd']2 | %14
w: ||||||
w: Shin- ing, shin-|* ing, Shin-|* ing ev- er bright and|fair; Shin-|ing, shin- ing,|* Shed- ding|
w: ||||||
 ^cB AG FE | D6 | DB AG FG | d2 F4 | DF Ac BA | B4 z2 | DB AG FG | d2 F4 | DF Ac BA | G4 z2 |] %24
w: ||||||||||
w: * sun- light ev- ery- where;|Shin-|ing ev- ery day for Je-|sus, Like|a sun- beam pure and fair;|Driv-|ing out the gloom and sad-|ness, Shed-|ding sun- light ev- ery- where.||
w: ||||||||||
V:2
 x6 | x6 | x6 | x6 | x6 | x6 | x6 | x6 || x2 da x4 | x2 db x4 | x6 | x6 | x2 da x4 | x2 db x4 | %14
 x6 | x6 | x6 | x6 | x6 | x6 | x6 | x6 | x6 | x6 |] %24
V:3
 [G,,G,]2 [G,B,D]2 [G,B,D]2 | [A,,A,]2 [A,CD]2 [A,CD]2 | [D,,D,]2 [A,CD]2 [A,CD]2 | %3
 [G,,G,]2 [G,B,D]2 [G,B,D]2 | [G,,G,]2 [G,B,D]2 [G,B,D]2 | [A,,A,]2 [A,CD]2 [A,CD]2 | %6
 [D,,D,]2 [A,CD]2 [A,CD]2 | [G,B,D]4 z2 || [D,,D,]2 [F,A,D]2 [F,A,D]2 x2 | %9
 [G,,G,]2 [G,B,D]2 [G,B,D]2 x2 | [A,,A,]2 [G,A,^C]2 [G,A,C]2 | D,2 [F,A,D]2 [F,A,D]2 | %12
 D,2 ([F,A,D]2 [F,A,D]2) x2 | [G,,G,]2 ([G,B,D]2 [G,B,D]2) x2 | [A,,A,]2 [G,A,^C]2 [A,,G,]2 | %15
 ([D,F,][E,G,][F,A,][G,B,] [D,A,C]2) | [G,,G,]2 [G,B,D]2 [G,B,D]2 | [A,,A,]2 [A,CD]2 [A,CD]2 | %18
 [D,,D,]2 [A,CD]2 [A,CD]2 | [G,,G,]2 [G,B,D]2 [G,B,D]2 | [G,,G,]2 [G,B,D]2 [G,B,D]2 | %21
 [A,,A,]2 [A,CD]2 [A,CD]2 | [D,,D,]2 [A,CD]2 [A,CD]2 | [G,B,D]4 z2 |] %24

